Sweet-Rainbow/icons/distributor-logo-manjaro.svg

<?xml version="1.0" encoding="UTF-8" standalone="no"?>
<!-- Generator: Gravit.io -->

<svg
   xmlns:dc="http://purl.org/dc/elements/1.1/"
   xmlns:cc="http://creativecommons.org/ns#"
   xmlns:rdf="http://www.w3.org/1999/02/22-rdf-syntax-ns#"
   xmlns:svg="http://www.w3.org/2000/svg"
   xmlns="http://www.w3.org/2000/svg"
   xmlns:sodipodi="http://sodipodi.sourceforge.net/DTD/sodipodi-0.dtd"
   xmlns:inkscape="http://www.inkscape.org/namespaces/inkscape"
   style="isolation:isolate"
   viewBox="0 0 36 36"
   width="48"
   height="48"
   version="1.1"
   id="svg9"
   sodipodi:docname="distributor-logo-manjaro.svg"
   inkscape:version="0.92.4 (5da689c313, 2019-01-14)">
  <metadata
     id="metadata15">
    <rdf:RDF>
      <cc:Work
         rdf:about="">
        <dc:format>image/svg+xml</dc:format>
        <dc:type
           rdf:resource="http://purl.org/dc/dcmitype/StillImage" />
        <dc:title></dc:title>
      </cc:Work>
    </rdf:RDF>
  </metadata>
  <defs
     id="defs13" />
  <sodipodi:namedview
     pagecolor="#ffffff"
     bordercolor="#666666"
     borderopacity="1"
     objecttolerance="10"
     gridtolerance="10"
     guidetolerance="10"
     inkscape:pageopacity="0"
     inkscape:pageshadow="2"
     inkscape:window-width="640"
     inkscape:window-height="480"
     id="namedview11"
     showgrid="false"
     inkscape:zoom="29.365243"
     inkscape:cx="25.325443"
     inkscape:cy="32"
     inkscape:current-layer="svg9"
     units="px" />
  <linearGradient
     id="_lgradient_30"
     x1="0.39980158"
     y1="0.20242152"
     x2="0.36506835"
     y2="1.1185315"
     gradientTransform="matrix(40,0,0,41,4,4)"
     gradientUnits="userSpaceOnUse">
    <stop
       offset="0%"
       stop-opacity="1"
       style="stop-color:rgb(67,233,123)"
       id="stop2" />
    <stop
       offset="97.82608695652173%"
       stop-opacity="1"
       style="stop-color:rgb(56,249,215)"
       id="stop4" />
  </linearGradient>
  <g
     id="g826"
     transform="matrix(0.87804878,0,0,0.87804878,-3.0731707,-3.5121951)">
    <path
       id="path7"
       d="m 4,7 v 35 1 c 0,1.108 0.892,2 2,2 H 16 V 44 17 H 30 V 16 16 5 4 H 6 C 4.892,4 4,4.892 4,6 Z M 32,5 v 39 1 h 10 c 1.108,0 2,-0.892 2,-2 V 42 42 42 7 7 7 6 6 C 44,4.892 43.108,4 42,4 V 4 H 32 V 4 4 4 Z M 18,19 v 25 1 H 30 V 44 44 19 18 H 18 v 0 0 0 z"
       style="fill:url(#_lgradient_30);fill-rule:evenodd"
       inkscape:connector-curvature="0" />
  </g>
</svg>

<?xml version="1.0" encoding="UTF-8" standalone="no"?><!-- Generator: Gravit.io --><svg xmlns="http://www.w3.org/2000/svg" xmlns:xlink="http://www.w3.org/1999/xlink" style="isolation:isolate" viewBox="0 0 48 48" width="48pt" height="48pt"><linearGradient id="_lgradient_30" x1="0.39980158730156745" y1="0.20242151662881497" x2="0.36506834215163786" y2="1.11853149718325" gradientTransform="matrix(40,0,0,41,4,4)" gradientUnits="userSpaceOnUse"><stop offset="0%" stop-opacity="1" style="stop-color:rgb(67,233,123)"/><stop offset="97.82608695652173%" stop-opacity="1" style="stop-color:rgb(56,249,215)"/></linearGradient><path d=" M 4 7 L 4 42 L 4 43 C 4 44.108 4.892 45 6 45 L 16 45 L 16 44 L 16 17 L 30 17 L 30 16 L 30 16 L 30 5 L 30 4 L 6 4 C 4.892 4 4 4.892 4 6 L 4 7 L 4 7 Z  M 32 5 L 32 44 L 32 45 L 42 45 C 43.108 45 44 44.108 44 43 L 44 42 L 44 42 L 44 42 L 44 7 L 44 7 L 44 7 L 44 6 L 44 6 C 44 4.892 43.108 4 42 4 L 42 4 L 32 4 L 32 4 L 32 4 L 32 4 L 32 5 Z  M 18 19 L 18 44 L 18 45 L 30 45 L 30 44 L 30 44 L 30 19 L 30 18 L 18 18 L 18 18 L 18 18 L 18 18 L 18 19 Z " fill-rule="evenodd" fill="url(#_lgradient_30)"/></svg>
